public/avatar/item0/10.svg

<svg xmlns:xlink="http://www.w3.org/1999/xlink" height="58.65" width="49.15" xmlns="http://www.w3.org/2000/svg"><use height="18.2" transform="translate(4.95 19.7)" width="37.35" xlink:href="#a"/><defs><g id="a"><path d="M12.55 12.8q3.9 4.25-6.65 6.55l-6.4.25-4.95.2q-2.5-.15-5.3-1.45-3.55-1.7-3.7-4.05 0-1.55.75-1.85.5-.2 2.5 1.15 4 2.45 6.2 2.65h4.65l5.55.35q1.85-.3 4.05-1.8l3.65-2.45-.35.45m-12-1.2Q.4 10.45.7 9.3q.65-2.35 3.2-2.35 4.05 0 3.7 4.15-1.55-2.15-3.5-2.05-1.85.1-2.9 1.35l-.65 1.2m-8.95 0q-.7-4.65 3.35-4.65 4.1 0 3.7 4.15-1.55-2.15-3.5-2.05-2.95.15-3.55 2.55" fill="#282639" fill-opacity=".302" fill-rule="evenodd" transform="translate(19.15 -1.6)"/><path d="M3.95 7.2q-1.4 0-2.45 1.25-1 1.25-1 3t1 3q1.05 1.25 2.45 1.25 1.45 0 2.45-1.25 1-1.25 1-3t-1-3Q5.4 7.2 3.95 7.2M.85 4.25q1.75-1 3.9-.65 7.2 1.25 7.75 4.6.4 2.05-1.35 5.1-2 3.45-5.05 4.75-4 1.65-6.6.45V5.35l1.35-1.1" fill="#f80" fill-rule="evenodd" transform="translate(19.15 -1.6)"/><path d="M11.95 11.2q.5.1 1 .95.45.8.25 1.2-.3.5-2.3.65.1 1.8-.95 2.15L8.3 16q-.8-.5-.9-1.35-.1-1.05 1.4-1.9l3.3-1.9-.15.35M-5.7 3.6q3.45-.55 5.3 1.75V18.5Q-3 19.7-7 18.05q-3.1-1.25-5.05-4.75-1.75-3.05-1.4-5.1.55-3.35 7.75-4.6m4.3 7.85q0-1.75-1-3Q-3.45 7.2-4.9 7.2q-1.4 0-2.45 1.25-1 1.25-1 3t1 3Q-6.3 15.7-4.9 15.7q1.45 0 2.5-1.25 1-1.25 1-3" fill="#f80" fill-rule="evenodd" transform="translate(19.15 -1.6)"/><path d="m-7.45 4.85.8 1.65q-.35 2.2-2.9 3.8-2.2 1.4-4.3 1.5-2.4 0-3-1.15-.3-.65.2-1.1l.9-.7q-2.85-1.4-2.9-2.9-.05-1.4 1.3-1.45l2.15.3Q-17.75 2-16 2.1q1.15.05 4.45 1.8-.85-2.65 4.1.95" fill="#f80" fill-rule="evenodd" transform="translate(19.15 -1.6)"/><path d="m-12.85 11.2-.2-.35 3.35 1.9q1.5.9 1.35 1.9-.05.85-.85 1.35l-1.65.15Q-12 15.8-11.8 14q-2.05-.15-2.3-.65-.25-.4.25-1.2.45-.85 1-.95m4.15-6.75q-.35-.55-.15-1.2.25-.7.9-.65 1.3.1 2 1.4-.25-1.45 1.05-1.2t1.05 1.15Q-4.1 4.6-6.1 5.1q-1.5.45-2.75-.5l.15-.15" fill="#f80" fill-rule="evenodd" transform="translate(19.15 -1.6)"/><path d="M6.55 17.75h-.1.1q-.8.85-5 .85l-5.15.25q-3.15-.1-4.75-1.4l-3.55-2.9q1.2-.2 2.45.7l2.25 1.35 7.1-.4 2.85.65 3.15-.25q3.7-2.3 4.6-2.25l-.25 1.25q-.75.65-1.35.6-.05.5-1 1.05l-1.35.5" fill="#cf5600" fill-rule="evenodd" transform="translate(19.15 -1.6)"/><path d="M-.4 5.35q-1.2-1.5-3.5-1.8-.25-.7-1.15-.75-.95-.1-.95.85l-.2.05q-1-1-1.75-1.1Q-9 2.55-8.9 3.9q-3.35-2.15-2.65 0-3.3-1.75-4.45-1.8-1.75-.1.8 2.7l-2.15-.3q-1.35.05-1.3 1.45.05 1.5 2.9 2.9-1.75.35-1.1 1.8.6 1.15 3 1.15l.25-.05q-.9 1-.5 1.6.25.5 2.3.65-.2 1.8.95 2.15l1.05.05q1.3 1.2 2.8 1.85 4 1.65 6.6.45" fill="none" stroke="#b23e00" stroke-linecap="round" stroke-linejoin="round" transform="translate(19.15 -1.6)"/><path d="M12.95 11.8q-2.1-.1-4.35-1.5-2.55-1.6-2.85-3.8l.8-1.65q4.95-3.6 4.05-.95 3.3-1.75 4.5-1.8 1.7-.1-.85 2.7l2.15-.3q1.35.05 1.3 1.45-.05 1.45-2.85 2.9l.9.7q.5.45.15 1.1-.55 1.15-2.95 1.15" fill="#f80" fill-rule="evenodd" transform="translate(19.15 -1.6)"/><path d="M1.7 8.25Q1.1 8.6.8 9.3l-.6 1.3.45-.1q-.1.55-.9.8-.8.2-1-.45L-2.05 9Q-2.9 7.25-4.1 7.05q-2.3.8-3.2.45-.7-.3.15-.95.7-.55 1.3-.65l3.4.25q1.85.8 2.65.6l3.4-.95q2.15-.1 2.8.6.95.95-1.85.95-1.15.05-2.85.9" fill="#d15700" fill-rule="evenodd" transform="translate(19.15 -1.6)"/><path d="m7.8 4.45.15.15q-1.3.95-2.75.5-2.1-.45-2.25-1.15-.3-.9 1.05-1.15Q5.25 2.55 5.05 4q.7-1.3 2-1.4.65-.05.85.65.2.65-.1 1.2" fill="#f80" fill-rule="evenodd" transform="translate(19.15 -1.6)"/><path d="M-.5 18.5q2.6 1.2 6.6-.45l2.8-1.85 1.05-.05Q11 15.8 10.9 14q2-.15 2.3-.65.35-.55-.5-1.6l.25.05q2.4 0 2.95-1.15.65-1.3-1.05-1.8 2.8-1.45 2.85-2.9.05-1.4-1.3-1.45l-2.15.3q2.55-2.8.85-2.7-1.2.05-4.5 1.8.7-2.15-2.65 0 .2-1.4-.9-1.3-.8.1-1.8 1.1l-.2-.05q0-.95-.95-.85-.9.05-1.15.75-1.4.2-2.55 1l-.9.8m-7.85 6.1q0-1.75 1-3Q-6.3 7.2-4.9 7.2q1.45 0 2.5 1.25 1 1.25 1 3t-1 3q-1.05 1.25-2.5 1.25-1.4 0-2.45-1.25-1-1.25-1-3Z" fill="none" stroke="#b23e00" stroke-linecap="round" stroke-linejoin="round" transform="translate(19.15 -1.6)"/><path d="M3.95 15.7q-1.4 0-2.45-1.25-1-1.25-1-3t1-3Q2.55 7.2 3.95 7.2q1.45 0 2.45 1.25 1 1.25 1 3t-1 3q-1 1.25-2.45 1.25Z" fill="none" stroke="#b23e00" stroke-linecap="round" stroke-linejoin="round" transform="translate(19.15 -1.6)"/><path d="m10.1 4.75 3.3-1.9 2.1-.3-2.95 1.8-2.45.4m1.65 1.1 4.05-.75q.95-.05 1.25.35.15.15-2.7 1.1-3.2.7-4-.25l1.4-.45m1.7 2.75q1.1.15 1.75.75 1 1.05-1.5.8-3.6-.55-4.05-1.7l3.8.15" fill="#ffcc91" fill-rule="evenodd" transform="translate(19.15 -1.6)"/><path d="m12.15 3.65 2.55-.75-1.6 1.15-1.45.8q-2.3.9-6.05-.1l-3-.35-2.2.95-.7.25q.2-.5 2.65-1.8l1.45-.7q.5-.05.75.35l.4.65q.2-.4 1-.85.85-.45 1.3-.4l.2 1.7L9.3 3.5q.95-.5.65 1.1.4-.25 2.2-.95M-13 5.85l1.4.45q-.8.95-4 .25-2.85-.95-2.7-1.1.3-.4 1.25-.35l4.05.75m-1.7 2.75 3.8-.15q-.45 1.15-4.05 1.7-2.45.25-1.5-.8.65-.6 1.75-.75m13.1-3.3q-1.4-.75-2.25-.9l-3 .35q-3.75 1-6.05.1l-1.45-.8-1.6-1.15q.5-.05 2.55.75l2.2.95q-.3-1.6.65-1.1l1.85 1.05.2-1.7q.45-.05 1.3.4l1 .85.45-.65q.2-.4.7-.35.5.05 1.45.7 2.45 1.3 2.65 1.8-.5.1-.65-.3" fill="#ffcc91" fill-rule="evenodd" transform="translate(19.15 -1.6)"/></g></defs></svg>

<?xml version="1.0" encoding="UTF-8" standalone="no"?>
<svg xmlns:xlink="http://www.w3.org/1999/xlink" height="58.65px" width="49.15px" xmlns="http://www.w3.org/2000/svg">
  <g transform="matrix(1.0, 0.0, 0.0, 1.0, 24.1, 18.1)">
    <use height="18.2" transform="matrix(1.0, 0.0, 0.0, 1.0, -19.15, 1.6)" width="37.35" xlink:href="#shape0"/>
  </g>
  <defs>
    <g id="shape0" transform="matrix(1.0, 0.0, 0.0, 1.0, 19.15, -1.6)">
      <path d="M12.55 12.8 Q16.45 17.05 5.9 19.35 L-0.5 19.6 -5.45 19.8 Q-7.95 19.65 -10.75 18.35 -14.3 16.65 -14.45 14.3 -14.45 12.75 -13.7 12.45 -13.2 12.25 -11.2 13.6 -7.2 16.05 -5.0 16.25 L-0.35 16.25 5.2 16.6 Q7.05 16.3 9.25 14.8 L12.9 12.35 12.55 12.8" fill="#282639" fill-opacity="0.3019608" fill-rule="evenodd" stroke="none"/>
      <path d="M0.55 11.6 Q0.4 10.45 0.7 9.3 1.35 6.95 3.9 6.95 7.95 6.95 7.6 11.1 6.05 8.95 4.1 9.05 2.25 9.15 1.2 10.4 L0.55 11.6" fill="#282639" fill-opacity="0.3019608" fill-rule="evenodd" stroke="none"/>
      <path d="M-8.4 11.6 Q-9.1 6.95 -5.05 6.95 -0.95 6.95 -1.35 11.1 -2.9 8.95 -4.85 9.05 -7.8 9.2 -8.4 11.6" fill="#282639" fill-opacity="0.3019608" fill-rule="evenodd" stroke="none"/>
      <path d="M3.95 7.2 Q2.55 7.2 1.5 8.45 0.5 9.7 0.5 11.45 0.5 13.2 1.5 14.45 2.55 15.7 3.95 15.7 5.4 15.7 6.4 14.45 7.4 13.2 7.4 11.45 7.4 9.7 6.4 8.45 5.4 7.2 3.95 7.2 M0.85 4.25 Q2.6 3.25 4.75 3.6 11.95 4.85 12.5 8.2 12.9 10.25 11.15 13.3 9.15 16.75 6.1 18.05 2.1 19.7 -0.5 18.5 L-0.5 5.35 0.85 4.25" fill="#ff8800" fill-rule="evenodd" stroke="none"/>
      <path d="M11.95 11.2 Q12.45 11.3 12.95 12.15 13.4 12.95 13.2 13.35 12.9 13.85 10.9 14.0 11.0 15.8 9.95 16.15 L8.3 16.0 Q7.5 15.5 7.4 14.65 7.3 13.6 8.8 12.75 L12.1 10.85 11.95 11.2" fill="#ff8800" fill-rule="evenodd" stroke="none"/>
      <path d="M-5.7 3.6 Q-2.25 3.05 -0.4 5.35 L-0.4 18.5 Q-3.0 19.7 -7.0 18.05 -10.1 16.8 -12.05 13.3 -13.8 10.25 -13.45 8.2 -12.9 4.85 -5.7 3.6 M-1.4 11.45 Q-1.4 9.7 -2.4 8.45 -3.45 7.2 -4.9 7.2 -6.3 7.2 -7.35 8.45 -8.35 9.7 -8.35 11.45 -8.35 13.2 -7.35 14.45 -6.3 15.7 -4.9 15.7 -3.45 15.7 -2.4 14.45 -1.4 13.2 -1.4 11.45" fill="#ff8800" fill-rule="evenodd" stroke="none"/>
      <path d="M-7.45 4.85 L-6.65 6.5 Q-7.0 8.7 -9.55 10.3 -11.75 11.7 -13.85 11.8 -16.25 11.8 -16.85 10.65 -17.15 10.0 -16.65 9.55 L-15.75 8.85 Q-18.6 7.45 -18.65 5.95 -18.7 4.55 -17.35 4.5 L-15.2 4.8 Q-17.75 2.0 -16.0 2.1 -14.85 2.15 -11.55 3.9 -12.4 1.25 -7.45 4.85" fill="#ff8800" fill-rule="evenodd" stroke="none"/>
      <path d="M-12.85 11.2 L-13.05 10.85 -9.7 12.75 Q-8.2 13.65 -8.35 14.65 -8.4 15.5 -9.2 16.0 L-10.85 16.15 Q-12.0 15.8 -11.8 14.0 -13.85 13.85 -14.1 13.35 -14.35 12.95 -13.85 12.15 -13.4 11.3 -12.85 11.2" fill="#ff8800" fill-rule="evenodd" stroke="none"/>
      <path d="M-8.7 4.45 Q-9.05 3.9 -8.85 3.25 -8.6 2.55 -7.95 2.6 -6.65 2.7 -5.95 4.0 -6.2 2.55 -4.9 2.8 -3.6 3.05 -3.85 3.95 -4.1 4.6 -6.1 5.1 -7.6 5.55 -8.85 4.6 L-8.7 4.45" fill="#ff8800" fill-rule="evenodd" stroke="none"/>
      <path d="M6.55 17.75 L6.5 17.75 6.45 17.75 6.5 17.75 6.55 17.75 Q5.75 18.6 1.55 18.6 L-3.6 18.85 Q-6.75 18.75 -8.35 17.45 L-11.9 14.55 Q-10.7 14.35 -9.45 15.25 L-7.2 16.6 -0.1 16.2 2.75 16.85 5.9 16.6 Q9.6 14.3 10.5 14.35 L10.25 15.6 Q9.5 16.25 8.9 16.2 8.85 16.7 7.9 17.25 L6.55 17.75" fill="#cf5600" fill-rule="evenodd" stroke="none"/>
      <path d="M-0.4 5.35 Q-1.6 3.85 -3.9 3.55 -4.15 2.85 -5.05 2.8 -6.0 2.7 -6.0 3.65 L-6.2 3.7 Q-7.2 2.7 -7.95 2.6 -9.0 2.55 -8.9 3.9 -12.25 1.75 -11.55 3.9 -14.85 2.15 -16.0 2.1 -17.75 2.0 -15.2 4.8 L-17.35 4.5 Q-18.7 4.55 -18.65 5.95 -18.6 7.45 -15.75 8.85 -17.5 9.2 -16.85 10.65 -16.25 11.8 -13.85 11.8 L-13.6 11.75 Q-14.5 12.75 -14.1 13.35 -13.85 13.85 -11.8 14.0 -12.0 15.8 -10.85 16.15 L-9.8 16.2 Q-8.5 17.4 -7.0 18.05 -3.0 19.7 -0.4 18.5" fill="none" stroke="#b23e00" stroke-linecap="round" stroke-linejoin="round" stroke-width="1.0"/>
      <path d="M12.95 11.8 Q10.85 11.7 8.6 10.3 6.05 8.7 5.75 6.5 L6.55 4.85 Q11.5 1.25 10.6 3.9 13.9 2.15 15.1 2.1 16.8 2.0 14.25 4.8 L16.4 4.5 Q17.75 4.55 17.7 5.95 17.65 7.4 14.85 8.85 L15.75 9.55 Q16.25 10.0 15.9 10.65 15.35 11.8 12.95 11.8" fill="#ff8800" fill-rule="evenodd" stroke="none"/>
      <path d="M1.7 8.25 Q1.1 8.6 0.8 9.3 L0.2 10.6 0.65 10.5 Q0.55 11.05 -0.25 11.3 -1.05 11.5 -1.25 10.85 L-2.05 9.0 Q-2.9 7.25 -4.1 7.05 -6.4 7.85 -7.3 7.5 -8.0 7.2 -7.15 6.55 -6.45 6.0 -5.85 5.9 L-2.45 6.15 Q-0.6 6.95 0.2 6.75 L3.6 5.8 Q5.75 5.7 6.4 6.4 7.35 7.35 4.55 7.35 3.4 7.4 1.7 8.25" fill="#d15700" fill-rule="evenodd" stroke="none"/>
      <path d="M7.8 4.45 L7.95 4.6 Q6.65 5.55 5.2 5.1 3.1 4.65 2.95 3.95 2.65 3.05 4.0 2.8 5.25 2.55 5.05 4.0 5.75 2.7 7.05 2.6 7.7 2.55 7.9 3.25 8.1 3.9 7.8 4.45" fill="#ff8800" fill-rule="evenodd" stroke="none"/>
      <path d="M-0.5 18.5 Q2.1 19.7 6.1 18.05 L8.9 16.2 9.95 16.15 Q11.0 15.8 10.9 14.0 12.9 13.85 13.2 13.35 13.55 12.8 12.7 11.75 L12.95 11.8 Q15.35 11.8 15.9 10.65 16.55 9.35 14.85 8.85 17.65 7.4 17.7 5.95 17.75 4.55 16.4 4.5 L14.25 4.8 Q16.8 2.0 15.1 2.1 13.9 2.15 10.6 3.9 11.3 1.75 7.95 3.9 8.15 2.5 7.05 2.6 6.25 2.7 5.25 3.7 L5.05 3.65 Q5.05 2.7 4.1 2.8 3.2 2.85 2.95 3.55 1.55 3.75 0.4 4.55 L-0.5 5.35" fill="none" stroke="#b23e00" stroke-linecap="round" stroke-linejoin="round" stroke-width="1.0"/>
      <path d="M-8.35 11.45 Q-8.35 9.7 -7.35 8.45 -6.3 7.2 -4.9 7.2 -3.45 7.2 -2.4 8.45 -1.4 9.7 -1.4 11.45 -1.4 13.2 -2.4 14.45 -3.45 15.7 -4.9 15.7 -6.3 15.7 -7.35 14.45 -8.35 13.2 -8.35 11.45 Z" fill="none" stroke="#b23e00" stroke-linecap="round" stroke-linejoin="round" stroke-width="1.0"/>
      <path d="M3.95 15.7 Q2.55 15.7 1.5 14.45 0.5 13.2 0.5 11.45 0.5 9.7 1.5 8.45 2.55 7.2 3.95 7.2 5.4 7.2 6.4 8.45 7.4 9.7 7.4 11.45 7.4 13.2 6.4 14.45 5.4 15.7 3.95 15.7 Z" fill="none" stroke="#b23e00" stroke-linecap="round" stroke-linejoin="round" stroke-width="1.0"/>
      <path d="M10.1 4.75 L13.4 2.85 15.5 2.55 12.55 4.35 10.1 4.75" fill="#ffcc91" fill-rule="evenodd" stroke="none"/>
      <path d="M11.75 5.85 L15.8 5.1 Q16.75 5.05 17.05 5.45 17.2 5.6 14.35 6.55 11.15 7.25 10.35 6.3 L11.75 5.85" fill="#ffcc91" fill-rule="evenodd" stroke="none"/>
      <path d="M13.45 8.6 Q14.55 8.75 15.2 9.35 16.2 10.4 13.7 10.15 10.1 9.6 9.65 8.45 L13.45 8.6" fill="#ffcc91" fill-rule="evenodd" stroke="none"/>
      <path d="M12.15 3.65 L14.7 2.9 13.1 4.05 11.65 4.85 Q9.35 5.75 5.6 4.75 L2.6 4.4 0.4 5.35 -0.3 5.6 Q-0.1 5.1 2.35 3.8 L3.8 3.1 Q4.3 3.05 4.55 3.45 L4.95 4.1 Q5.15 3.7 5.95 3.25 6.8 2.8 7.25 2.85 L7.45 4.55 9.3 3.5 Q10.25 3.0 9.95 4.6 10.35 4.35 12.15 3.65" fill="#ffcc91" fill-rule="evenodd" stroke="none"/>
      <path d="M-13.0 5.85 L-11.6 6.3 Q-12.4 7.25 -15.6 6.55 -18.45 5.6 -18.3 5.45 -18.0 5.05 -17.05 5.1 L-13.0 5.85" fill="#ffcc91" fill-rule="evenodd" stroke="none"/>
      <path d="M-14.7 8.6 L-10.9 8.45 Q-11.35 9.6 -14.95 10.15 -17.4 10.4 -16.45 9.35 -15.8 8.75 -14.7 8.6" fill="#ffcc91" fill-rule="evenodd" stroke="none"/>
      <path d="M-1.6 5.3 Q-3.0 4.55 -3.85 4.4 L-6.85 4.75 Q-10.6 5.75 -12.9 4.85 L-14.35 4.05 -15.95 2.9 Q-15.45 2.85 -13.4 3.65 L-11.2 4.6 Q-11.5 3.0 -10.55 3.5 L-8.7 4.55 -8.5 2.85 Q-8.05 2.8 -7.2 3.25 L-6.2 4.1 -5.75 3.45 Q-5.55 3.05 -5.05 3.1 -4.55 3.15 -3.6 3.8 -1.15 5.1 -0.95 5.6 -1.45 5.7 -1.6 5.3" fill="#ffcc91" fill-rule="evenodd" stroke="none"/>
    </g>
  </defs>
</svg>
